icon_installer/data/icons/scalable/actions/show-cat-symbolic.svg

<?xml version="1.0" encoding="UTF-8"?>
<svg height="16px" viewBox="0 0 16 16" width="16px" xmlns="http://www.w3.org/2000/svg">
    <g fill="#222222">
        <path d="m 12.191406 2 h 1.621094 c 1.203125 0 2.179688 0.976562 2.179688 2.179688 v 1.640624 c 0 1.203126 -0.976563 2.179688 -2.179688 2.179688 h -1.621094 c -1.203125 0 -2.179687 -0.976562 -2.179687 -2.179688 v -1.640624 c 0 -1.203126 0.976562 -2.179688 2.179687 -2.179688 z m 0 0"/>
        <path d="m 15.988281 5.613281 v 6.988281 c 0 1.320313 -1.070312 2.386719 -2.386719 2.386719 h -8.597656 c -0.554687 0 -1.003906 -0.449219 -1.003906 -1.003906 v -0.441406 c 0 -1.957031 1.585938 -3.542969 3.542969 -3.542969 h 2.347656 c 1.140625 0 2.066406 -0.925781 2.066406 -2.0625 v -2.351562 z m 0 0"/>
        <path d="m 9.992188 3.964844 v -4.011719 l 2.125 2.015625 z m 0 0"/>
        <path d="m 15.992188 3.964844 v -4.011719 l -1.960938 2.015625 z m 0 0"/>
        <path d="m 5.878906 13 h -2.898437 c -0.535157 0 -0.980469 -0.445312 -0.980469 -0.980469 v -0.160156 c 0 -1.039063 0.425781 -2.03125 1.175781 -2.75 l 1.804688 -1.726563 c 0.671875 -0.640624 1.050781 -1.53125 1.050781 -2.457031 v -0.253906 c 0 -1.480469 -1.191406 -2.671875 -2.671875 -2.671875 h -1.464844 c -0.550781 0 -1 0.445312 -1 1 c 0 0.550781 0.449219 1 1 1 h 1.464844 c 0.367187 0 0.671875 0.304688 0.671875 0.671875 v 0.253906 c 0 0.382813 -0.15625 0.746094 -0.429688 1.011719 l -1.808593 1.726562 c -1.144531 1.09375 -1.792969 2.609376 -1.792969 4.195313 v 0.160156 c 0 1.652344 1.328125 2.980469 2.980469 2.980469 h 2.898437 c 0.550782 0 1 -0.449219 1 -1 s -0.449218 -1 -1 -1 z m 0 0"/>
    </g>
</svg>

<svg xmlns="http://www.w3.org/2000/svg" width="16" height="16"><g fill="#222"><path d="M12.191 2h1.621a2.18 2.18 0 0 1 2.18 2.18v1.64A2.18 2.18 0 0 1 13.812 8h-1.62a2.18 2.18 0 0 1-2.18-2.18V4.18A2.18 2.18 0 0 1 12.192 2zm0 0"/><path d="M15.988 5.613v6.989c0 1.32-1.07 2.386-2.386 2.386H5.004A1.003 1.003 0 0 1 4 13.984v-.441A3.543 3.543 0 0 1 7.543 10h2.348c1.14 0 2.066-.926 2.066-2.063V5.586zM9.992 3.965V-.047l2.125 2.016zm6 0V-.047l-1.96 2.016zm0 0"/><path d="M5.879 13H2.98a.989.989 0 0 1-.98-.98v-.16c0-1.04.426-2.032 1.176-2.75L4.98 7.382a3.398 3.398 0 0 0 1.051-2.457v-.254A2.666 2.666 0 0 0 3.36 2H1.895a1 1 0 1 0 0 2h1.464c.368 0 .672.305.672.672v.254c0 .383-.156.746-.43 1.011L1.794 7.664A5.803 5.803 0 0 0 0 11.86v.16A2.972 2.972 0 0 0 2.98 15h2.9c.55 0 1-.45 1-1s-.45-1-1-1zm0 0"/></g></svg>
